packages/calcite-ui-icons/icons/dashboard-graph-24.svg

<svg xmlns="http://www.w3.org/2000/svg" viewBox="0 0 24 24"><path d="M21 6h-1V5h1v1zm2-3v18H1V3h22zM2 4v3h20V4H2zm20 16V8H2v12h20zm-7-9h4v8h-4v-8zm1 7h2v-6h-2v6zm-6-9h4v10h-4V9zm1 9h2v-8h-2v8zm-6-5h4v6H5v-6zm1 5h2v-4H6v4z"/><path fill="none" d="M0 0h24v24H0z"/></svg>

<?xml version="1.0" encoding="UTF-8"?><svg id="icons" xmlns="http://www.w3.org/2000/svg" viewBox="0 0 24 24"><defs><style>.cls-1{fill:none;}</style></defs><path d="M21,6h-1v-1h1v1ZM23,3v18H1V3h22ZM2,4v3h20v-3H2ZM22,20v-12H2v12h20ZM15,11h4v8h-4v-8ZM16,18h2v-6h-2v6ZM10,9h4v10h-4v-10ZM11,18h2v-8h-2v8ZM5,13h4v6h-4v-6ZM6,18h2v-4h-2v4Z"/><rect class="cls-1" width="24" height="24"/></svg>
